X: 396
T: Curse the Laws That Gave Me Cause
M:C
L:1/8
B:O'Neill's 396
N:"Moderate."
N:The last note of each section is a half note (should be dotted.)
N:"collected by Hartnett"
Z:Transcribed by Chris Falt, cfalt@trytel.com
K:Am
E2|A2AB cA^GA|cde^f g2ed|c2cA GEDE|G4 z2E2|
A2AB cA^GA|cde^f g2e^c|d3=c A2A2|A4||
e^f|g2ed cdef|e2a^g a2b=g|e2dB A2GE|G6E2|
A2AB cA^GA|cde^f g2e^c|d3=c A2A2|A4||


